;FLAVOR:Marlin
;TIME:2770
;Filament used: 1.48825m
;Layer height: 0.16
;MINX:54.12
;MINY:55.95
;MINZ:0.2
;MAXX:175.451
;MAXY:172.761
;MAXZ:1.4
;Generated with Cura_SteamEngine 4.13.1
M140 S60
M105
M190 S60
M104 S200
M105
M109 S200
M82 ;absolute extrusion mode
M201 X500.00 Y500.00 Z100.00 E5000.00 ;Setup machine max acceleration
M203 X500.00 Y500.00 Z10.00 E50.00 ;Setup machine max feedrate
M204 P500.00 R1000.00 T500.00 ;Setup Print/Retract/Travel acceleration
M205 X8.00 Y8.00 Z0.40 E5.00 ;Setup Jerk
M220 S100 ;Reset Feedrate
M221 S100 ;Reset Flowrate

G28 ;Home

G92 E0 ;Reset Extruder
G1 Z2.0 F3000 ;Move Z Axis up
G1 X10.1 Y20 Z0.28 F5000.0 ;Move to start position
G1 X10.1 Y200.0 Z0.28 F1500.0 E15 ;Draw the first line
G1 X10.4 Y200.0 Z0.28 F5000.0 ;Move to side a little
G1 X10.4 Y20 Z0.28 F1500.0 E30 ;Draw the second line
G92 E0 ;Reset Extruder
G1 Z2.0 F3000 ;Move Z Axis up

G92 E0
G92 E0
G1 F1500 E-6.5
;LAYER_COUNT:8
;LAYER:0
M107
G0 F6000 X66.81 Y78.424 Z0.2
;TYPE:SKIRT
G1 F1500 E0
G1 F1200 X67.561 Y77.862 E0.0312
G1 X68.241 Y77.433 E0.05794
G1 X68.53 Y77.265 E0.06906
G1 X69.36 Y76.829 E0.10024
G1 X70.269 Y76.448 E0.13302
G1 X71.009 Y76.178 E0.15922
G1 X72.008 Y75.829 E0.19442
G1 X74.326 Y74.946 E0.27692
G1 X76.667 Y73.977 E0.36119
G1 X78.983 Y72.941 E0.44557
G1 X81.226 Y71.86 E0.52839
G1 X83.47 Y70.699 E0.61242
G1 X85.685 Y69.474 E0.69661
G1 X87.834 Y68.202 E0.77967
G1 X89.965 Y66.86 E0.86343
G1 X92.065 Y65.452 E0.94752
G1 X94.106 Y64 E1.03083
G1 X96.132 Y62.469 E1.11529
G1 X98.102 Y60.892 E1.19922
G1 X99.674 Y59.557 E1.26782
G1 X99.738 Y59.507 E1.27052
G1 X100.673 Y58.701 E1.31158
G1 X101.408 Y58.12 E1.34274
G1 X102.191 Y57.603 E1.37395
G1 X103.015 Y57.155 E1.40514
G1 X103.874 Y56.778 E1.43634
G1 X104.377 Y56.596 E1.45413
G1 X104.629 Y56.512 E1.46297
G1 X105.531 Y56.254 E1.49417
G1 X106.451 Y56.073 E1.52536
G1 X107.384 Y55.972 E1.55657
G1 X108.321 Y55.95 E1.58774
G1 X109.562 Y56.044 E1.62914
G1 X109.607 Y56.05 E1.63065
G1 X110.355 Y56.177 E1.65588
G1 X110.927 Y56.295 E1.67531
G1 X112.72 Y56.688 E1.73636
G1 X115.221 Y57.164 E1.82104
G1 X117.675 Y57.557 E1.9037
G1 X120.211 Y57.892 E1.98878
G1 X122.708 Y58.149 E2.07227
G1 X125.204 Y58.336 E2.15552
G1 X127.745 Y58.454 E2.24012
G1 X129.338 Y58.49 E2.29312
G1 X130.65 Y58.509 E2.33676
G1 X131.587 Y58.562 E2.36798
G1 X132.515 Y58.695 E2.39916
G1 X133.496 Y58.926 E2.43268
G1 X133.718 Y58.989 E2.44035
G1 X134.609 Y59.283 E2.47156
G1 X135.471 Y59.652 E2.50274
G1 X136.066 Y59.96 E2.52503
G1 X136.943 Y60.45 E2.55844
G1 X137.416 Y60.724 E2.57662
G1 X139.61 Y61.912 E2.65961
G1 X141.86 Y63.051 E2.74348
G1 X144.128 Y64.118 E2.82685
G1 X146.418 Y65.118 E2.90996
G1 X148.786 Y66.073 E2.99488
G1 X151.129 Y66.943 E3.07801
G1 X153.531 Y67.757 E3.16237
G1 X155.915 Y68.491 E3.24533
G1 X158.369 Y69.171 E3.33003
G1 X160.708 Y69.751 E3.41018
G1 X162.529 Y70.176 E3.47237
G1 X163.433 Y70.428 E3.50359
G1 X164.311 Y70.755 E3.53475
G1 X165.159 Y71.157 E3.56596
G1 X165.969 Y71.629 E3.59714
G1 X166.736 Y72.169 E3.62834
G1 X167.248 Y72.587 E3.65032
G1 X167.409 Y72.727 E3.65742
G1 X168.09 Y73.372 E3.68862
G1 X168.713 Y74.073 E3.71981
G1 X169.275 Y74.824 E3.75101
G1 X169.601 Y75.332 E3.77108
G1 X170.222 Y76.505 E3.81523
G1 X170.515 Y77.154 E3.83891
G1 X171.133 Y78.568 E3.89024
G1 X172.178 Y80.786 E3.97179
G1 X173.832 Y84.01 E4.09231
G1 X174.08 Y84.472 E4.10975
G1 X174.489 Y85.316 E4.14094
G1 X174.824 Y86.192 E4.17213
G1 X175.003 Y86.785 E4.19274
G1 X175.051 Y86.961 E4.1988
G1 X175.259 Y87.875 E4.22998
G1 X175.389 Y88.804 E4.26118
G1 X175.438 Y89.687 E4.29059
G1 X175.451 Y90.64 E4.32229
G1 X175.45 Y103.94 E4.76465
G1 X175.441 Y104.606 E4.78681
G1 X175.408 Y105.315 E4.81041
G1 X175.399 Y105.43 E4.81425
G1 X175.286 Y106.361 E4.84544
G1 X175.188 Y106.883 E4.86311
G1 X175.133 Y107.139 E4.87182
G1 X175.074 Y107.395 E4.88055
G1 X174.96 Y107.87 E4.8968
G1 X174.94 Y107.981 E4.90055
G1 X174.699 Y108.963 E4.93418
G1 X174.159 Y111.453 E5.01893
G1 X173.705 Y113.9 E5.1017
G1 X173.314 Y116.385 E5.18537
G1 X172.994 Y118.867 E5.26861
G1 X172.741 Y121.401 E5.35331
G1 X172.562 Y123.899 E5.4366
G1 X172.455 Y126.409 E5.52016
G1 X172.417 Y128.924 E5.60382
G1 X172.451 Y131.463 E5.68828
G1 X172.554 Y133.938 E5.77067
G1 X172.733 Y136.461 E5.85479
G1 X172.971 Y138.84 E5.93431
G1 X173.014 Y139.329 E5.95064
G1 X173.056 Y140.266 E5.98184
G1 X173.018 Y141.203 E6.01303
G1 X172.901 Y142.134 E6.04424
G1 X172.708 Y143.038 E6.07498
G1 X172.658 Y143.232 E6.08164
G1 X172.385 Y144.13 E6.11286
G1 X172.037 Y145.001 E6.14406
G1 X171.616 Y145.839 E6.17525
G1 X171.145 Y146.609 E6.20527
G1 X171.074 Y146.715 E6.20951
G1 X170.843 Y147.047 E6.22297
G1 X170.743 Y147.184 E6.22861
G1 X169.279 Y149.278 E6.31359
G1 X167.885 Y151.395 E6.39789
G1 X166.57 Y153.522 E6.48107
G1 X165.298 Y155.716 E6.56542
G1 X164.099 Y157.92 E6.64887
G1 X162.97 Y160.151 E6.73203
G1 X161.888 Y162.443 E6.81633
G1 X160.874 Y164.762 E6.90051
G1 X160.445 Y165.773 E6.93704
G1 X160.041 Y166.62 E6.96825
G1 X159.567 Y167.429 E6.99944
G1 X159.025 Y168.194 E7.03062
G1 X158.421 Y168.911 E7.0618
G1 X157.757 Y169.574 E7.09301
G1 X157.21 Y170.043 E7.11698
G1 X156.992 Y170.218 E7.12627
G1 X156.236 Y170.773 E7.15747
G1 X155.436 Y171.262 E7.18865
G1 X154.597 Y171.681 E7.21984
G1 X153.725 Y172.028 E7.25106
G1 X152.972 Y172.26 E7.27726
G1 X152.909 Y172.277 E7.27943
G1 X151.994 Y172.483 E7.31063
G1 X151.064 Y172.609 E7.34184
G1 X150.22 Y172.656 E7.36996
G1 X149.41 Y172.669 E7.3969
G1 X136.076 Y172.67 E7.84039
G1 X135.266 Y172.66 E7.86734
G1 X134.579 Y172.629 E7.89021
G1 X134.461 Y172.62 E7.89415
G1 X133.566 Y172.515 E7.92412
G1 X132.188 Y172.294 E7.97054
G1 X131.949 Y172.253 E7.9786
G1 X129.474 Y171.894 E8.06178
G1 X126.94 Y171.6 E8.14663
G1 X124.47 Y171.384 E8.22909
G1 X121.939 Y171.234 E8.31342
G1 X119.424 Y171.158 E8.39711
G1 X116.894 Y171.151 E8.48126
G1 X114.406 Y171.216 E8.56404
G1 X111.888 Y171.352 E8.64791
G1 X109.344 Y171.562 E8.73281
G1 X106.885 Y171.836 E8.8151
G1 X104.349 Y172.191 E8.90027
G1 X102.453 Y172.504 E8.96419
G1 X101.973 Y172.587 E8.98039
G1 X101.042 Y172.707 E9.01161
G1 X100.273 Y172.747 E9.03722
G1 X99.462 Y172.76 E9.0642
G1 X86.129 Y172.761 E9.50766
G1 X85.319 Y172.751 E9.5346
G1 X84.383 Y172.698 E9.56578
G1 X83.454 Y172.566 E9.59699
G1 X82.127 Y172.232 E9.6425
G1 X81.873 Y172.151 E9.65137
G1 X80.992 Y171.828 E9.68258
G1 X80.142 Y171.432 E9.71377
G1 X79.329 Y170.964 E9.74497
G1 X78.559 Y170.429 E9.77616
G1 X77.837 Y169.83 E9.80736
G1 X77.169 Y169.172 E9.83854
G1 X76.56 Y168.459 E9.86973
G1 X76.069 Y167.782 E9.89755
G1 X75.92 Y167.559 E9.90647
G1 X75.432 Y166.758 E9.93766
G1 X75.015 Y165.918 E9.96886
G1 X74.816 Y165.44 E9.98608
G1 X74.412 Y164.404 E10.02306
G1 X73.43 Y161.992 E10.10968
G1 X72.427 Y159.721 E10.19225
G1 X71.347 Y157.449 E10.27592
G1 X70.194 Y155.188 E10.36034
G1 X68.986 Y152.977 E10.44413
G1 X67.722 Y150.814 E10.52746
G1 X66.394 Y148.681 E10.61103
G1 X64.475 Y145.811 E10.72586
G1 X64.291 Y145.546 E10.73659
G1 X63.644 Y144.492 E10.77772
G1 X63.539 Y144.297 E10.78509
G1 X63.225 Y143.667 E10.8085
G1 X63.064 Y143.313 E10.82144
G1 X62.231 Y141.423 E10.89013
G1 X61.155 Y139.157 E10.97357
G1 X60 Y136.891 E11.05816
G1 X58.792 Y134.681 E11.14193
G1 X57.538 Y132.534 E11.22463
G1 X55.963 Y130.008 E11.32363
G1 X55.797 Y129.737 E11.3342
G1 X55.342 Y128.917 E11.36539
G1 X54.958 Y128.061 E11.3966
G1 X54.565 Y126.885 E11.43784
G1 X54.52 Y126.72 E11.44353
G1 X54.312 Y125.806 E11.4747
G1 X54.182 Y124.877 E11.5059
G1 X54.133 Y123.994 E11.53532
G1 X54.12 Y123.041 E11.56702
G1 X54.121 Y109.724 E12.00994
G1 X54.13 Y109.071 E12.03166
G1 X54.16 Y108.397 E12.0541
G1 X54.167 Y108.304 E12.05721
G1 X54.277 Y107.373 E12.08839
G1 X54.466 Y106.454 E12.11959
G1 X54.733 Y105.555 E12.15078
G1 X54.926 Y105.036 E12.1692
G1 X55.011 Y104.824 E12.1768
G1 X55.417 Y103.93 E12.20945
G1 X55.892 Y102.998 E12.24425
G1 X56.228 Y102.359 E12.26826
G1 X57.31 Y100.158 E12.34983
G1 X58.374 Y97.829 E12.435
G1 X59.356 Y95.505 E12.51891
G1 X60.279 Y93.145 E12.60319
G1 X61.118 Y90.795 E12.68619
G1 X61.9 Y88.396 E12.77011
G1 X62.611 Y85.988 E12.85362
G1 X63.072 Y84.275 E12.91262
G1 X63.455 Y83.113 E12.95331
G1 X63.53 Y82.922 E12.96014
G1 X63.91 Y82.065 E12.99132
G1 X64.361 Y81.243 E13.0225
G1 X64.881 Y80.462 E13.05371
G1 X65.465 Y79.729 E13.08488
G1 X66.11 Y79.047 E13.1161
G1 X66.81 Y78.424 E13.14727
G0 F6000 X67.142 Y78.67
G1 F1200 X67.885 Y78.126 E13.1779
G1 X68.442 Y77.779 E13.19973
G1 X68.731 Y77.611 E13.21084
G1 X69.546 Y77.183 E13.24146
G1 X70.406 Y76.824 E13.27246
G1 X71.141 Y76.556 E13.29848
G1 X72.134 Y76.209 E13.33346
G1 X74.485 Y75.314 E13.41713
G1 X76.834 Y74.342 E13.50169
G1 X79.125 Y73.316 E13.58518
G1 X81.405 Y72.217 E13.66936
G1 X83.669 Y71.047 E13.75412
G1 X85.877 Y69.825 E13.83806
G1 X88.029 Y68.551 E13.92123
G1 X90.22 Y67.172 E14.00734
G1 X92.274 Y65.795 E14.08959
G1 X94.356 Y64.313 E14.17459
G1 X96.378 Y62.786 E14.25886
G1 X98.327 Y61.225 E14.34191
G1 X99.932 Y59.862 E14.41195
G1 X100.002 Y59.807 E14.41491
G1 X100.934 Y59.004 E14.45583
G1 X101.657 Y58.434 E14.48645
G1 X102.426 Y57.928 E14.51707
G1 X103.237 Y57.492 E14.54769
G1 X104.504 Y56.976 E14.59319
G1 X104.756 Y56.892 E14.60203
G1 X105.641 Y56.639 E14.63264
G1 X106.545 Y56.464 E14.66327
G1 X107.461 Y56.368 E14.6939
G1 X108.381 Y56.352 E14.7245
G1 X109.509 Y56.441 E14.76214
G1 X109.554 Y56.447 E14.76365
G1 X110.275 Y56.569 E14.78797
G1 X110.841 Y56.685 E14.80719
G1 X112.658 Y57.084 E14.86906
G1 X115.16 Y57.559 E14.95376
G1 X117.631 Y57.956 E15.037
G1 X120.15 Y58.288 E15.12151
G1 X122.674 Y58.548 E15.2059
G1 X125.154 Y58.734 E15.28862
G1 X127.761 Y58.854 E15.37542
G1 X129.322 Y58.89 E15.42735
G1 X130.645 Y58.909 E15.47136
G1 X131.564 Y58.962 E15.50198
G1 X132.475 Y59.095 E15.5326
G1 X133.387 Y59.311 E15.56377
G1 X133.609 Y59.374 E15.57145
G1 X134.483 Y59.663 E15.60206
G1 X135.328 Y60.028 E15.63268
G1 X135.872 Y60.31 E15.65306
G1 X136.742 Y60.796 E15.6862
G1 X137.203 Y61.063 E15.70392
G1 X139.417 Y62.262 E15.78767
G1 X141.702 Y63.419 E15.87285
G1 X143.947 Y64.475 E15.95537
G1 X146.287 Y65.496 E16.04028
G1 X148.645 Y66.448 E16.12486
G1 X150.995 Y67.32 E16.20823
G1 X153.401 Y68.135 E16.29272
G1 X155.828 Y68.883 E16.37719
G1 X158.236 Y69.55 E16.4603
G1 X160.601 Y70.136 E16.54134
G1 X162.438 Y70.565 E16.60408
G1 X163.325 Y70.813 E16.63471
G1 X164.187 Y71.137 E16.66534
G1 X165.017 Y71.535 E16.69596
G1 X165.81 Y72.003 E16.72658
G1 X166.559 Y72.538 E16.7572
G1 X166.985 Y72.889 E16.77555
G1 X167.146 Y73.029 E16.78265
G1 X167.814 Y73.663 E16.81328
G1 X168.425 Y74.352 E16.84391
G1 X168.973 Y75.092 E16.87454
G1 X169.26 Y75.54 E16.89223
G1 X169.857 Y76.67 E16.93474
G1 X170.149 Y77.315 E16.95829
G1 X170.757 Y78.707 E17.00881
G1 X171.836 Y80.996 E17.09298
G1 X173.46 Y84.162 E17.21132
G1 X173.728 Y84.661 E17.23016
G1 X174.128 Y85.49 E17.26078
G1 X174.455 Y86.351 E17.29141
G1 X174.617 Y86.89 E17.31013
G1 X174.665 Y87.066 E17.3162
G1 X174.869 Y87.964 E17.34683
G1 X174.994 Y88.876 E17.37744
G1 X175.038 Y89.693 E17.40466
G1 X175.051 Y90.64 E17.43616
G1 X175.05 Y103.934 E17.87832
G1 X175.041 Y104.6 E17.90047
G1 X175.01 Y105.284 E17.92324
G1 X175.001 Y105.399 E17.92708
G1 X174.889 Y106.313 E17.95771
G1 X174.797 Y106.799 E17.97416
G1 X174.742 Y107.055 E17.98287
G1 X174.581 Y107.737 E18.00617
G1 X174.552 Y107.885 E18.01119
G1 X174.307 Y108.881 E18.04531
G1 X173.769 Y111.368 E18.12994
G1 X173.309 Y113.842 E18.21363
G1 X172.916 Y116.338 E18.29767
G1 X172.598 Y118.813 E18.38067
G1 X172.342 Y121.368 E18.46607
G1 X172.162 Y123.889 E18.55014
G1 X172.055 Y126.384 E18.6332
G1 X172.017 Y128.924 E18.71769
G1 X172.051 Y131.45 E18.80171
G1 X172.157 Y133.981 E18.88596
G1 X172.334 Y136.496 E18.96982
G1 X172.572 Y138.875 E19.04934
G1 X172.615 Y139.364 E19.06567
G1 X172.656 Y140.284 E19.0963
G1 X172.617 Y141.204 E19.12692
G1 X172.498 Y142.117 E19.15755
G1 X172.321 Y142.939 E19.18551
G1 X172.271 Y143.133 E19.19218
G1 X172.002 Y144.013 E19.22278
G1 X171.659 Y144.867 E19.25339
G1 X171.242 Y145.688 E19.28402
G1 X170.813 Y146.386 E19.31127
G1 X170.742 Y146.492 E19.31551
G1 X170.519 Y146.812 E19.32849
G1 X170.405 Y146.97 E19.33497
G1 X168.96 Y149.034 E19.41877
G1 X167.544 Y151.186 E19.50445
G1 X166.226 Y153.316 E19.58776
G1 X164.959 Y155.502 E19.67179
G1 X163.755 Y157.716 E19.75562
G1 X162.591 Y160.016 E19.84135
G1 X161.537 Y162.249 E19.92348
G1 X160.503 Y164.612 E20.00927
G1 X160.077 Y165.617 E20.04557
G1 X159.68 Y166.447 E20.07618
G1 X159.213 Y167.24 E20.10678
G1 X158.678 Y167.99 E20.13743
G1 X158.08 Y168.69 E20.16805
G1 X157.424 Y169.336 E20.19867
G1 X156.96 Y169.731 E20.21894
G1 X156.742 Y169.906 E20.22823
G1 X155.999 Y170.451 E20.25888
G1 X155.213 Y170.929 E20.28948
G1 X154.387 Y171.337 E20.32012
G1 X153.53 Y171.672 E20.35072
G1 X152.868 Y171.874 E20.37375
G1 X152.805 Y171.891 E20.37592
G1 X151.906 Y172.092 E20.40655
G1 X150.994 Y172.214 E20.43716
G1 X150.213 Y172.256 E20.46317
G1 X149.403 Y172.269 E20.49012
G1 X136.076 Y172.27 E20.93337
G1 X135.271 Y172.26 E20.96015
G1 X134.61 Y172.23 E20.98216
G1 X134.492 Y172.221 E20.98609
G1 X133.629 Y172.12 E21.01499
G1 X132.256 Y171.9 E21.06124
G1 X132.003 Y171.856 E21.06978
G1 X129.506 Y171.494 E21.1537
G1 X127.019 Y171.205 E21.23698
G1 X124.494 Y170.985 E21.32128
G1 X121.938 Y170.834 E21.40644
G1 X119.438 Y170.758 E21.48963
G1 X116.885 Y170.751 E21.57454
G1 X114.375 Y170.816 E21.65805
G1 X111.868 Y170.952 E21.74156
G1 X109.335 Y171.161 E21.82609
G1 X106.826 Y171.441 E21.91006
G1 X104.261 Y171.8 E21.9962
G1 X102.401 Y172.107 E22.0589
G1 X101.904 Y172.193 E22.07568
G1 X100.991 Y172.31 E22.10629
G1 X100.267 Y172.347 E22.13041
G1 X99.456 Y172.36 E22.15738
G1 X86.129 Y172.361 E22.60064
G1 X85.324 Y172.351 E22.62742
G1 X84.405 Y172.298 E22.65803
G1 X83.494 Y172.166 E22.68865
G1 X82.248 Y171.851 E22.7314
G1 X81.994 Y171.77 E22.74026
G1 X81.13 Y171.452 E22.77089
G1 X80.297 Y171.061 E22.80149
G1 X79.501 Y170.599 E22.8321
G1 X78.748 Y170.069 E22.86273
G1 X78.043 Y169.477 E22.89335
G1 X77.393 Y168.825 E22.92397
G1 X76.802 Y168.119 E22.95459
G1 X76.401 Y167.56 E22.97747
G1 X76.252 Y167.337 E22.98639
G1 X75.775 Y166.55 E23.017
G1 X75.367 Y165.724 E23.04764
G1 X75.189 Y165.295 E23.06309
G1 X74.776 Y164.236 E23.1009
G1 X73.808 Y161.858 E23.18629
G1 X72.797 Y159.568 E23.26955
G1 X71.686 Y157.232 E23.35559
G1 X70.558 Y155.021 E23.43814
G1 X69.339 Y152.789 E23.52273
G1 X68.058 Y150.596 E23.6072
G1 X66.743 Y148.484 E23.68995
G1 X64.803 Y145.583 E23.80602
G1 X64.619 Y145.318 E23.81675
G1 X63.996 Y144.302 E23.85639
G1 X63.891 Y144.107 E23.86376
G1 X63.589 Y143.5 E23.88631
G1 X63.43 Y143.152 E23.89903
G1 X62.594 Y141.256 E23.96795
G1 X61.501 Y138.953 E24.05274
G1 X60.364 Y136.723 E24.13599
G1 X59.145 Y134.493 E24.22052
G1 X57.889 Y132.342 E24.30337
G1 X56.304 Y129.799 E24.40303
G1 X56.138 Y129.528 E24.4136
G1 X55.692 Y128.723 E24.44421
G1 X55.317 Y127.882 E24.47484
G1 X54.951 Y126.78 E24.51346
G1 X54.906 Y126.615 E24.51915
G1 X54.702 Y125.717 E24.54978
G1 X54.577 Y124.805 E24.58039
G1 X54.533 Y123.988 E24.60761
G1 X54.52 Y123.041 E24.63911
G1 X54.521 Y109.73 E25.08183
G1 X54.53 Y109.077 E25.10355
G1 X54.559 Y108.427 E25.12519
G1 X54.566 Y108.334 E25.1283
G1 X54.675 Y107.42 E25.15891
G1 X54.863 Y106.519 E25.18952
G1 X55.128 Y105.637 E25.22016
G1 X55.297 Y105.185 E25.23621
G1 X55.382 Y104.973 E25.2438
G1 X55.774 Y104.111 E25.2753
G1 X56.246 Y103.185 E25.30987
G1 X56.576 Y102.558 E25.33343
G1 X57.681 Y100.308 E25.41681
G1 X58.742 Y97.986 E25.50172
G1 X59.727 Y95.658 E25.58579
G1 X60.648 Y93.299 E25.67002
G1 X61.492 Y90.937 E25.75345
G1 X62.277 Y88.528 E25.83772
G1 X63 Y86.079 E25.92265
