;FLAVOR:Marlin
;TIME:2616
;Filament used: 1.68167m
;Layer height: 0.16
;MINX:57.55
;MINY:57.55
;MINZ:0.2
;MAXX:177.45
;MAXY:177.45
;MAXZ:1.4
;Generated with Cura_SteamEngine 4.13.1
M140 S60
M105
M190 S60
M104 S200
M105
M109 S200
M82 ;absolute extrusion mode
M201 X500.00 Y500.00 Z100.00 E5000.00 ;Setup machine max acceleration
M203 X500.00 Y500.00 Z10.00 E50.00 ;Setup machine max feedrate
M204 P500.00 R1000.00 T500.00 ;Setup Print/Retract/Travel acceleration
M205 X8.00 Y8.00 Z0.40 E5.00 ;Setup Jerk
M220 S100 ;Reset Feedrate
M221 S100 ;Reset Flowrate

G28 ;Home

G92 E0 ;Reset Extruder
G1 Z2.0 F3000 ;Move Z Axis up
G1 X10.1 Y20 Z0.28 F5000.0 ;Move to start position
G1 X10.1 Y200.0 Z0.28 F1500.0 E15 ;Draw the first line
G1 X10.4 Y200.0 Z0.28 F5000.0 ;Move to side a little
G1 X10.4 Y20 Z0.28 F1500.0 E30 ;Draw the second line
G92 E0 ;Reset Extruder
G1 Z2.0 F3000 ;Move Z Axis up

G92 E0
G92 E0
G1 F1500 E-6.5
;LAYER_COUNT:8
;LAYER:0
M107
G0 F6000 X73.959 Y61.963 Z0.2
;TYPE:SKIRT
G1 F1500 E0
G1 F1200 X74.558 Y61.242 E0.03118
G1 X75.217 Y60.574 E0.06239
G1 X75.93 Y59.965 E0.09357
G1 X76.692 Y59.418 E0.12477
G1 X77.498 Y58.939 E0.15596
G1 X78.342 Y58.53 E0.18715
G1 X79.201 Y58.2 E0.21776
G1 X79.394 Y58.135 E0.22453
G1 X80.295 Y57.874 E0.25573
G1 X81.215 Y57.691 E0.28693
G1 X82.597 Y57.564 E0.33309
G1 X82.954 Y57.554 E0.34497
G1 X83.262 Y57.55 E0.35521
G1 X94.343 Y57.551 E0.72377
G1 X95.049 Y57.561 E0.74725
G1 X95.355 Y57.57 E0.75743
G1 X96.681 Y57.626 E0.80157
G1 X98 Y57.692 E0.8455
G1 X101.256 Y57.75 E0.95381
G1 X108.643 Y57.751 E1.1995
G1 X109.504 Y57.764 E1.22814
G1 X112.22 Y57.841 E1.31852
G1 X113.513 Y57.85 E1.36152
G1 X121.297 Y57.85 E1.62042
G1 X123.909 Y57.813 E1.7073
G1 X125.84 Y57.755 E1.77156
G1 X126.162 Y57.75 E1.78227
G1 X137.253 Y57.751 E2.15116
G1 X137.983 Y57.762 E2.17544
G1 X138.919 Y57.816 E2.20662
G1 X139.847 Y57.95 E2.23781
G1 X140.761 Y58.162 E2.26901
G1 X141.653 Y58.452 E2.30021
G1 X142.132 Y58.643 E2.31736
G1 X142.336 Y58.73 E2.32474
G1 X143.182 Y59.134 E2.35592
G1 X143.991 Y59.609 E2.38712
G1 X144.756 Y60.151 E2.41831
G1 X145.473 Y60.757 E2.44953
G1 X146.333 Y61.643 E2.4906
G1 X147.307 Y62.767 E2.54007
G1 X149.009 Y64.673 E2.62506
G1 X150.747 Y66.512 E2.70922
G1 X152.523 Y68.287 E2.79273
G1 X154.347 Y70.012 E2.87623
G1 X156.217 Y71.68 E2.95957
G1 X158.586 Y73.667 E3.06241
G1 X159.245 Y74.201 E3.09062
G1 X159.948 Y74.822 E3.12182
G1 X160.632 Y75.543 E3.15488
G1 X160.794 Y75.73 E3.16311
G1 X160.996 Y75.97 E3.17354
G1 X161.112 Y76.112 E3.17964
G1 X162.745 Y78.063 E3.26426
G1 X164.448 Y79.984 E3.34964
G1 X166.149 Y81.798 E3.43235
G1 X167.93 Y83.591 E3.51641
G1 X169.747 Y85.32 E3.59983
G1 X171.595 Y86.982 E3.6825
G1 X172.459 Y87.711 E3.7201
G1 X173.509 Y88.62 E3.76629
G1 X174.191 Y89.263 E3.79746
G1 X174.816 Y89.962 E3.82865
G1 X175.379 Y90.712 E3.85984
G1 X175.721 Y91.243 E3.88085
G1 X175.845 Y91.448 E3.88882
G1 X176.296 Y92.27 E3.92
G1 X176.675 Y93.128 E3.9512
G1 X176.98 Y94.015 E3.9824
G1 X177.207 Y94.925 E4.01359
G1 X177.368 Y95.945 E4.04794
G1 X177.375 Y96.009 E4.05008
G1 X177.436 Y96.896 E4.07965
G1 X177.446 Y97.252 E4.09149
G1 X177.45 Y97.561 E4.10177
G1 X177.449 Y108.623 E4.4697
G1 X177.439 Y109.345 E4.49371
G1 X177.43 Y109.655 E4.50403
G1 X177.374 Y110.981 E4.54817
G1 X177.308 Y112.3 E4.5921
G1 X177.25 Y115.556 E4.70041
G1 X177.25 Y119.526 E4.83245
G1 X177.287 Y122.149 E4.9197
G1 X177.397 Y124.735 E5.00579
G1 X177.422 Y125.166 E5.02015
G1 X177.436 Y125.496 E5.03113
G1 X177.446 Y125.854 E5.04305
G1 X177.45 Y126.161 E5.05326
G1 X177.449 Y137.233 E5.42151
G1 X177.438 Y137.98 E5.44636
G1 X177.384 Y138.916 E5.47754
G1 X177.266 Y139.761 E5.50592
G1 X177.252 Y139.839 E5.50856
G1 X177.047 Y140.755 E5.53978
G1 X176.765 Y141.649 E5.57096
G1 X176.408 Y142.516 E5.60214
G1 X175.897 Y143.489 E5.6387
G1 X175.773 Y143.699 E5.64681
G1 X175.406 Y144.278 E5.66961
G1 X175.06 Y144.787 E5.69008
G1 X174.193 Y146.03 E5.74048
G1 X172.839 Y148.094 E5.82259
G1 X171.486 Y150.289 E5.90835
G1 X170.243 Y152.441 E5.991
G1 X169.048 Y154.648 E6.07448
G1 X167.919 Y156.887 E6.15788
G1 X166.837 Y159.189 E6.24248
G1 X165.825 Y161.511 E6.32673
G1 X164.885 Y163.841 E6.41029
G1 X164.026 Y166.172 E6.49292
G1 X163.058 Y169.057 E6.59413
G1 X162.914 Y169.512 E6.61
G1 X162.594 Y170.393 E6.64118
G1 X162.199 Y171.244 E6.67238
G1 X161.734 Y172.058 E6.70356
G1 X161.138 Y172.912 E6.7382
G1 X161 Y173.091 E6.74572
G1 X160.396 Y173.809 E6.77693
G1 X159.733 Y174.473 E6.80813
G1 X159.016 Y175.077 E6.83932
G1 X158.251 Y175.619 E6.8705
G1 X157.441 Y176.093 E6.90171
G1 X156.595 Y176.497 E6.9329
G1 X155.799 Y176.8 E6.96122
G1 X155.606 Y176.865 E6.968
G1 X154.705 Y177.126 E6.9992
G1 X153.785 Y177.309 E7.0304
G1 X152.403 Y177.436 E7.07655
G1 X152.046 Y177.446 E7.08843
G1 X151.738 Y177.45 E7.09868
G1 X140.657 Y177.449 E7.46723
G1 X139.951 Y177.439 E7.49072
G1 X139.645 Y177.43 E7.5009
G1 X138.319 Y177.374 E7.54504
G1 X137 Y177.308 E7.58897
G1 X133.744 Y177.25 E7.69728
G1 X126.357 Y177.249 E7.94297
G1 X125.496 Y177.236 E7.97161
G1 X122.78 Y177.159 E8.06198
G1 X121.487 Y177.15 E8.10499
G1 X113.703 Y177.15 E8.36389
G1 X111.094 Y177.187 E8.45067
G1 X109.16 Y177.245 E8.51502
G1 X108.838 Y177.25 E8.52574
G1 X101.157 Y177.25 E8.78121
G1 X98.551 Y177.287 E8.86789
G1 X95.958 Y177.397 E8.95421
G1 X95.532 Y177.422 E8.96841
G1 X95.203 Y177.436 E8.97936
G1 X94.844 Y177.446 E8.9913
G1 X94.538 Y177.45 E9.00148
G1 X83.447 Y177.449 E9.37037
G1 X82.717 Y177.438 E9.39465
G1 X81.781 Y177.384 E9.42584
G1 X80.853 Y177.25 E9.45702
G1 X79.939 Y177.038 E9.48823
G1 X79.047 Y176.748 E9.51942
G1 X78.568 Y176.557 E9.53658
G1 X78.364 Y176.47 E9.54395
G1 X77.518 Y176.066 E9.57513
G1 X76.709 Y175.591 E9.60634
G1 X75.944 Y175.049 E9.63752
G1 X75.227 Y174.443 E9.66874
G1 X74.565 Y173.779 E9.69993
G1 X73.962 Y173.061 E9.73111
G1 X73.422 Y172.294 E9.76231
G1 X73.081 Y171.725 E9.78438
G1 X72.95 Y171.491 E9.7933
G1 X72.527 Y170.654 E9.82449
G1 X72.089 Y169.526 E9.86473
G1 X71.288 Y167.069 E9.95069
G1 X70.446 Y164.715 E10.03384
G1 X69.536 Y162.383 E10.1171
G1 X68.556 Y160.07 E10.20065
G1 X67.498 Y157.752 E10.2854
G1 X66.402 Y155.524 E10.36798
G1 X65.218 Y153.278 E10.45243
G1 X63.975 Y151.074 E10.53659
G1 X62.694 Y148.944 E10.61926
G1 X61.34 Y146.83 E10.70276
G1 X60.357 Y145.412 E10.76014
G1 X60.223 Y145.2 E10.76848
G1 X59.538 Y144.194 E10.80896
G1 X59.044 Y143.397 E10.84015
G1 X58.619 Y142.56 E10.87137
G1 X58.205 Y141.511 E10.90888
G1 X58.135 Y141.303 E10.91618
G1 X57.874 Y140.402 E10.94738
G1 X57.69 Y139.482 E10.97859
G1 X57.564 Y138.104 E11.02461
G1 X57.554 Y137.749 E11.03642
G1 X57.55 Y137.439 E11.04673
G1 X57.551 Y126.357 E11.41532
G1 X57.561 Y125.65 E11.43884
G1 X57.57 Y125.343 E11.44905
G1 X57.626 Y124.019 E11.49313
G1 X57.692 Y122.7 E11.53706
G1 X57.75 Y119.444 E11.64537
G1 X57.75 Y115.457 E11.77798
G1 X57.713 Y112.851 E11.86466
G1 X57.602 Y110.248 E11.95132
G1 X57.578 Y109.827 E11.96534
G1 X57.564 Y109.504 E11.97609
G1 X57.554 Y109.149 E11.98791
G1 X57.55 Y108.839 E11.99822
G1 X57.551 Y97.747 E12.36714
G1 X57.562 Y97.016 E12.39145
G1 X57.616 Y96.08 E12.42264
G1 X57.734 Y95.239 E12.45088
G1 X57.748 Y95.161 E12.45352
G1 X57.953 Y94.245 E12.48474
G1 X58.235 Y93.351 E12.51592
G1 X58.592 Y92.484 E12.5471
G1 X59.103 Y91.511 E12.58366
G1 X59.227 Y91.301 E12.59177
G1 X59.594 Y90.722 E12.61457
G1 X59.94 Y90.213 E12.63504
G1 X60.807 Y88.97 E12.68544
G1 X62.161 Y86.906 E12.76755
G1 X63.514 Y84.711 E12.85331
G1 X64.757 Y82.559 E12.93597
G1 X65.957 Y80.343 E13.01978
G1 X67.081 Y78.113 E13.10284
G1 X68.163 Y75.811 E13.18744
G1 X69.175 Y73.489 E13.27169
G1 X70.115 Y71.159 E13.35525
G1 X70.98 Y68.81 E13.43851
G1 X71.947 Y65.929 E13.53959
G1 X72.094 Y65.467 E13.55571
G1 X72.416 Y64.586 E13.58691
G1 X72.813 Y63.736 E13.61811
G1 X73.28 Y62.923 E13.6493
G1 X73.822 Y62.143 E13.68089
G1 X73.959 Y61.963 E13.68841
G0 F6000 X74.277 Y62.205
G1 F1200 X74.866 Y61.497 E13.71904
G1 X75.514 Y60.844 E13.74964
G1 X76.216 Y60.248 E13.78027
G1 X76.968 Y59.716 E13.81091
G1 X77.763 Y59.251 E13.84154
G1 X78.595 Y58.857 E13.87216
G1 X79.329 Y58.579 E13.89826
G1 X79.522 Y58.514 E13.90504
G1 X80.406 Y58.259 E13.93564
G1 X81.309 Y58.081 E13.96625
G1 X82.608 Y57.964 E14.00963
G1 X82.965 Y57.954 E14.02151
G1 X83.262 Y57.95 E14.03139
G1 X94.337 Y57.951 E14.39974
G1 X95.043 Y57.961 E14.42323
G1 X95.339 Y57.969 E14.43308
G1 X96.661 Y58.025 E14.47709
G1 X98.003 Y58.092 E14.52178
G1 X101.249 Y58.15 E14.62976
G1 X108.637 Y58.151 E14.87548
G1 X109.493 Y58.164 E14.90396
G1 X112.206 Y58.241 E14.99423
G1 X113.51 Y58.25 E15.0376
G1 X121.303 Y58.25 E15.2968
G1 X123.93 Y58.213 E15.38418
G1 X124.145 Y58.205 E15.39133
G1 X125.852 Y58.155 E15.44813
G1 X126.162 Y58.15 E15.45845
G1 X137.247 Y58.151 E15.82713
G1 X137.977 Y58.162 E15.85142
G1 X138.896 Y58.216 E15.88204
G1 X139.807 Y58.349 E15.91266
G1 X140.703 Y58.561 E15.94328
G1 X141.975 Y59.011 E15.98816
G1 X142.179 Y59.098 E15.99553
G1 X143.01 Y59.495 E16.02616
G1 X143.802 Y59.963 E16.05676
G1 X144.551 Y60.499 E16.0874
G1 X145.251 Y61.097 E16.11802
G1 X146.031 Y61.905 E16.15537
G1 X146.991 Y63.013 E16.20413
G1 X148.721 Y64.95 E16.29051
G1 X150.473 Y66.804 E16.37535
G1 X152.231 Y68.561 E16.45802
G1 X154.092 Y70.321 E16.54321
G1 X155.941 Y71.97 E16.62561
G1 X158.362 Y74.001 E16.73072
G1 X158.993 Y74.512 E16.75773
G1 X159.682 Y75.122 E16.78833
G1 X160.33 Y75.805 E16.81965
G1 X160.492 Y75.992 E16.82788
G1 X162.469 Y78.357 E16.9304
G1 X164.123 Y80.222 E17.01331
G1 X165.856 Y82.07 E17.09757
G1 X167.653 Y83.879 E17.18238
G1 X169.469 Y85.607 E17.26576
G1 X171.353 Y87.301 E17.35002
G1 X172.197 Y88.013 E17.38675
G1 X173.247 Y88.922 E17.43294
G1 X173.916 Y89.554 E17.46355
G1 X174.528 Y90.242 E17.49418
G1 X175.078 Y90.981 E17.52482
G1 X175.379 Y91.45 E17.54335
G1 X175.503 Y91.655 E17.55132
G1 X175.945 Y92.463 E17.58195
G1 X176.315 Y93.306 E17.61257
G1 X176.61 Y94.177 E17.64316
G1 X176.829 Y95.072 E17.67381
G1 X176.97 Y95.988 E17.70463
G1 X176.977 Y96.052 E17.70677
G1 X177.036 Y96.907 E17.73528
G1 X177.046 Y97.263 E17.74712
G1 X177.05 Y97.561 E17.75703
G1 X177.049 Y108.618 E18.12479
G1 X177.039 Y109.34 E18.14881
G1 X177.031 Y109.639 E18.15876
G1 X176.975 Y110.961 E18.20277
G1 X176.908 Y112.303 E18.24746
G1 X176.85 Y115.522 E18.35454
G1 X176.85 Y119.526 E18.48771
G1 X176.887 Y122.172 E18.57573
G1 X176.998 Y124.778 E18.66248
G1 X177.022 Y125.19 E18.67621
G1 X177.036 Y125.507 E18.68676
G1 X177.046 Y125.865 E18.69867
G1 X177.05 Y126.161 E18.70852
G1 X177.049 Y137.227 E19.07658
G1 X177.038 Y137.974 E19.10142
G1 X176.984 Y138.893 E19.13204
G1 X176.872 Y139.691 E19.15884
G1 X176.858 Y139.769 E19.16148
G1 X176.656 Y140.667 E19.19209
G1 X176.377 Y141.544 E19.2227
G1 X176.023 Y142.394 E19.25333
G1 X175.553 Y143.286 E19.28686
G1 X175.429 Y143.496 E19.29497
G1 X175.075 Y144.053 E19.31692
G1 X174.732 Y144.559 E19.33726
G1 X173.863 Y145.805 E19.38778
G1 X172.481 Y147.912 E19.47159
G1 X171.158 Y150.059 E19.55547
G1 X169.904 Y152.23 E19.63886
G1 X168.678 Y154.493 E19.72446
G1 X167.558 Y156.716 E19.80725
G1 X166.466 Y159.038 E19.8926
G1 X165.464 Y161.337 E19.97601
G1 X164.511 Y163.701 E20.06078
G1 X163.648 Y166.042 E20.14377
G1 X162.683 Y168.918 E20.24467
G1 X162.533 Y169.391 E20.26117
G1 X162.217 Y170.256 E20.2918
G1 X161.828 Y171.091 E20.32244
G1 X161.368 Y171.888 E20.35304
G1 X160.821 Y172.668 E20.38473
G1 X160.683 Y172.847 E20.39225
G1 X160.09 Y173.551 E20.42286
G1 X159.437 Y174.201 E20.45351
G1 X158.731 Y174.792 E20.48413
G1 X157.977 Y175.319 E20.51473
G1 X157.179 Y175.779 E20.54536
G1 X156.345 Y176.168 E20.57597
G1 X155.671 Y176.421 E20.59992
G1 X155.478 Y176.486 E20.60669
G1 X154.594 Y176.741 E20.63729
G1 X153.691 Y176.919 E20.6679
G1 X152.392 Y177.036 E20.71128
G1 X152.035 Y177.046 E20.72316
G1 X151.738 Y177.05 E20.73304
G1 X140.663 Y177.049 E21.10139
G1 X139.957 Y177.039 E21.12488
G1 X139.661 Y177.031 E21.13473
G1 X138.339 Y176.975 E21.17874
G1 X136.997 Y176.908 E21.22343
G1 X133.751 Y176.85 E21.33141
G1 X126.363 Y176.849 E21.57713
G1 X125.507 Y176.836 E21.60561
G1 X122.794 Y176.759 E21.69588
G1 X121.49 Y176.75 E21.73925
G1 X113.697 Y176.75 E21.99845
G1 X111.072 Y176.787 E22.08576
G1 X110.855 Y176.795 E22.09299
G1 X109.148 Y176.845 E22.14978
G1 X108.838 Y176.85 E22.1601
G1 X101.151 Y176.85 E22.41577
G1 X98.528 Y176.887 E22.50302
G1 X95.918 Y176.998 E22.5899
G1 X95.509 Y177.022 E22.60353
G1 X95.192 Y177.036 E22.61409
G1 X94.833 Y177.046 E22.62603
G1 X94.538 Y177.05 E22.63584
G1 X83.453 Y177.049 E23.00453
G1 X82.723 Y177.038 E23.02881
G1 X81.804 Y176.984 E23.05943
G1 X80.893 Y176.851 E23.09005
G1 X79.997 Y176.639 E23.12068
G1 X78.725 Y176.189 E23.16555
G1 X78.521 Y176.102 E23.17293
G1 X77.69 Y175.705 E23.20356
G1 X76.898 Y175.237 E23.23416
G1 X76.149 Y174.701 E23.26479
G1 X75.449 Y174.103 E23.29541
G1 X74.803 Y173.447 E23.32604
G1 X74.217 Y172.736 E23.35668
G1 X73.695 Y171.978 E23.38729
G1 X73.43 Y171.53 E23.4046
G1 X73.299 Y171.296 E23.41352
G1 X72.884 Y170.474 E23.44415
G1 X72.47 Y169.402 E23.48237
G1 X71.68 Y166.979 E23.56714
G1 X70.823 Y164.583 E23.65177
G1 X69.901 Y162.219 E23.73617
G1 X68.914 Y159.891 E23.82027
G1 X67.857 Y157.575 E23.90494
G1 X66.758 Y155.34 E23.98778
G1 X65.571 Y153.089 E24.07242
G1 X64.324 Y150.877 E24.15688
G1 X63.031 Y148.728 E24.24029
G1 X61.673 Y146.608 E24.32403
G1 X60.686 Y145.184 E24.38166
G1 X60.546 Y144.962 E24.39039
G1 X59.869 Y143.968 E24.43039
G1 X59.384 Y143.186 E24.46099
G1 X58.969 Y142.364 E24.49162
G1 X58.584 Y141.383 E24.52667
G1 X58.514 Y141.175 E24.53397
G1 X58.258 Y140.29 E24.56461
G1 X58.08 Y139.387 E24.59522
G1 X57.964 Y138.092 E24.63847
G1 X57.954 Y137.737 E24.65028
G1 X57.95 Y137.439 E24.66019
G1 X57.951 Y126.363 E25.02858
G1 X57.961 Y125.656 E25.0521
G1 X57.969 Y125.36 E25.06195
G1 X58.025 Y124.039 E25.10592
G1 X58.092 Y122.697 E25.15061
G1 X58.15 Y119.451 E25.25859
G1 X58.15 Y115.451 E25.39163
G1 X58.113 Y112.828 E25.47888
G1 X58.001 Y110.208 E25.5661
G1 X57.978 Y109.804 E25.57956
G1 X57.964 Y109.492 E25.58995
G1 X57.954 Y109.137 E25.60176
G1 X57.95 Y108.839 E25.61168
G1 X57.951 Y97.754 E25.98036
G1 X57.962 Y97.023 E26.00468
G1 X58.016 Y96.103 E26.03533
G1 X58.128 Y95.309 E26.062
G1 X58.142 Y95.231 E26.06464
G1 X58.344 Y94.333 E26.09525
G1 X58.623 Y93.456 E26.12586
G1 X58.977 Y92.606 E26.15649
G1 X59.447 Y91.714 E26.19002
G1 X59.571 Y91.504 E26.19813
G1 X59.925 Y90.947 E26.22008
G1 X60.268 Y90.441 E26.24042
G1 X61.137 Y89.195 E26.29094
G1 X62.519 Y87.088 E26.37475
G1 X63.842 Y84.941 E26.45863
G1 X65.096 Y82.77 E26.54202
G1 X66.322 Y80.507 E26.62762
G1 X67.442 Y78.284 E26.71041
G1 X68.534 Y75.962 E26.79575
G1 X69.536 Y73.663 E26.87917
G1 X70.489 Y71.299 E26.96394
G1 X71.352 Y68.958 E27.04693
G1 X72.321 Y66.07 E27.14824
G1 X72.475 Y65.588 E27.16507
G1 X72.792 Y64.724 E27.19568
G1 X73.183 Y63.89 E27.22632
G1 X73.645 Y63.094 E27.25693
G1 X74.14 Y62.385 E27.28569
G1 X74.277 Y62.205 E27.29322
G0 F6000 X74.595 Y62.447
G1 F1200 X75.174 Y61.754 E27.32325
G1 X75.811 Y61.114 E27.35328
G1 X76.502 Y60.533 E27.38331
G1 X77.243 Y60.015 E27.41338
G1 X78.026 Y59.565 E27.44342
G1 X78.845 Y59.186 E27.47343
G1 X79.456 Y58.958 E27.49512
G1 X79.649 Y58.893 E27.5019
G1 X80.517 Y58.643 E27.53194
G1 X81.404 Y58.471 E27.56199
G1 X82.619 Y58.364 E27.60256
G1 X82.976 Y58.354 E27.61444
G1 X83.262 Y58.35 E27.62395
G1 X94.331 Y58.351 E27.99211
G1 X95.037 Y58.361 E28.01559
G1 X95.322 Y58.369 E28.02508
G1 X96.641 Y58.425 E28.06899
G1 X97.976 Y58.492 E28.11344
G1 X101.242 Y58.55 E28.22209
G1 X108.631 Y58.551 E28.46785
G1 X109.482 Y58.564 E28.49615
G1 X112.193 Y58.641 E28.58636
G1 X113.507 Y58.65 E28.63006
G1 X121.309 Y58.65 E28.88956
