;FLAVOR:Marlin
;TIME:3539
;Filament used: 2.37941m
;Layer height: 0.16
;MINX:47.18
;MINY:44.258
;MINZ:0.2
;MAXX:193.033
;MAXY:192.867
;MAXZ:1.4
;Generated with Cura_SteamEngine 4.13.1
M140 S60
M105
M190 S60
M104 S200
M105
M109 S200
M82 ;absolute extrusion mode
M201 X500.00 Y500.00 Z100.00 E5000.00 ;Setup machine max acceleration
M203 X500.00 Y500.00 Z10.00 E50.00 ;Setup machine max feedrate
M204 P500.00 R1000.00 T500.00 ;Setup Print/Retract/Travel acceleration
M205 X8.00 Y8.00 Z0.40 E5.00 ;Setup Jerk
M220 S100 ;Reset Feedrate
M221 S100 ;Reset Flowrate

G28 ;Home

G92 E0 ;Reset Extruder
G1 Z2.0 F3000 ;Move Z Axis up
G1 X10.1 Y20 Z0.28 F5000.0 ;Move to start position
G1 X10.1 Y200.0 Z0.28 F1500.0 E15 ;Draw the first line
G1 X10.4 Y200.0 Z0.28 F5000.0 ;Move to side a little
G1 X10.4 Y20 Z0.28 F1500.0 E30 ;Draw the second line
G92 E0 ;Reset Extruder
G1 Z2.0 F3000 ;Move Z Axis up

G92 E0
G92 E0
G1 F1500 E-6.5
;LAYER_COUNT:8
;LAYER:0
M107
G0 F6000 X70.07 Y65.255 Z0.2
;TYPE:SKIRT
G1 F1500 E0
G1 F1200 X70.452 Y64.86 E0.01828
G1 X70.576 Y64.738 E0.02406
G1 X72.382 Y62.907 E0.1096
G1 X74.104 Y61.059 E0.19361
G1 X75.773 Y59.162 E0.27765
G1 X77.375 Y57.236 E0.36097
G1 X78.917 Y55.27 E0.44408
G1 X81.266 Y52.046 E0.57675
G1 X81.603 Y51.593 E0.59553
G1 X81.765 Y51.387 E0.60425
G1 X82.113 Y50.968 E0.62236
G1 X82.474 Y50.553 E0.64066
G1 X82.895 Y50.094 E0.66137
G1 X83.087 Y49.897 E0.67052
G1 X83.427 Y49.564 E0.68635
G1 X83.817 Y49.197 E0.70416
G1 X84.273 Y48.791 E0.72447
G1 X84.481 Y48.616 E0.73351
G1 X84.921 Y48.264 E0.75225
G1 X85.358 Y47.933 E0.77049
G1 X85.8 Y47.616 E0.78858
G1 X85.992 Y47.485 E0.79631
G1 X86.478 Y47.172 E0.81553
G1 X86.983 Y46.865 E0.83519
G1 X87.474 Y46.583 E0.85402
G1 X87.689 Y46.467 E0.86215
G1 X88.218 Y46.2 E0.88186
G1 X88.75 Y45.949 E0.90142
G1 X89.262 Y45.723 E0.92004
G1 X89.515 Y45.619 E0.92913
G1 X90.073 Y45.407 E0.94899
G1 X90.586 Y45.228 E0.96706
G1 X91.13 Y45.054 E0.98606
G1 X91.37 Y44.984 E0.99437
G1 X91.884 Y44.848 E1.01205
G1 X92.455 Y44.711 E1.03159
G1 X93.076 Y44.58 E1.05269
G1 X93.332 Y44.534 E1.06135
G1 X93.846 Y44.454 E1.07865
G1 X94.41 Y44.38 E1.09757
G1 X95.098 Y44.312 E1.12056
G1 X95.364 Y44.294 E1.12943
G1 X95.836 Y44.272 E1.14514
G1 X96.404 Y44.258 E1.16404
G1 X97.03 Y44.261 E1.18486
G1 X97.278 Y44.269 E1.19312
G1 X97.779 Y44.296 E1.2098
G1 X98.33 Y44.339 E1.22818
G1 X98.941 Y44.404 E1.24862
G1 X99.345 Y44.459 E1.26218
G1 X102.095 Y44.862 E1.35462
G1 X104.569 Y45.152 E1.43747
G1 X107.069 Y45.373 E1.52095
G1 X109.6 Y45.525 E1.60528
G1 X112.086 Y45.604 E1.68801
G1 X114.609 Y45.612 E1.77192
G1 X117.134 Y45.55 E1.85593
G1 X119.652 Y45.416 E1.9398
G1 X122.165 Y45.211 E2.02366
G1 X124.659 Y44.936 E2.10711
G1 X127.452 Y44.546 E2.20091
G1 X128.093 Y44.463 E2.22241
G1 X128.697 Y44.402 E2.2426
G1 X128.914 Y44.386 E2.24984
G1 X129.438 Y44.36 E2.26728
G1 X130.055 Y44.344 E2.28781
G1 X130.693 Y44.346 E2.30903
G1 X130.942 Y44.354 E2.31732
G1 X131.445 Y44.381 E2.33407
G1 X131.996 Y44.424 E2.35246
G1 X132.647 Y44.495 E2.37424
G1 X132.929 Y44.534 E2.3837
G1 X133.417 Y44.612 E2.40014
G1 X133.981 Y44.716 E2.41922
G1 X134.631 Y44.857 E2.44134
G1 X134.853 Y44.912 E2.44895
G1 X135.339 Y45.044 E2.4657
G1 X135.915 Y45.215 E2.48568
G1 X136.323 Y45.345 E2.49992
G1 X138.859 Y46.207 E2.58901
G1 X141.246 Y46.945 E2.67211
G1 X143.661 Y47.616 E2.75548
G1 X146.182 Y48.241 E2.84186
G1 X148.578 Y48.763 E2.92342
G1 X150.244 Y49.085 E2.97986
G1 X151.038 Y49.233 E3.00672
G1 X151.66 Y49.367 E3.02789
G1 X151.895 Y49.425 E3.03594
G1 X152.366 Y49.553 E3.05217
G1 X152.889 Y49.707 E3.0703
G1 X153.432 Y49.882 E3.08928
G1 X153.631 Y49.952 E3.09629
G1 X153.958 Y50.073 E3.10789
G1 X154.278 Y50.199 E3.11933
G1 X154.766 Y50.401 E3.1369
G1 X155.326 Y50.652 E3.15731
G1 X155.588 Y50.778 E3.16698
G1 X156.004 Y50.989 E3.18249
G1 X156.457 Y51.231 E3.19957
G1 X157.104 Y51.605 E3.22443
G1 X157.336 Y51.75 E3.23353
G1 X157.683 Y51.976 E3.2473
G1 X158.159 Y52.299 E3.26643
G1 X158.716 Y52.703 E3.28932
G1 X158.902 Y52.847 E3.29714
G1 X159.283 Y53.156 E3.31346
G1 X159.744 Y53.547 E3.33357
G1 X160.167 Y53.924 E3.35241
G1 X160.336 Y54.083 E3.36013
G1 X160.721 Y54.465 E3.37817
G1 X161.112 Y54.871 E3.39692
G1 X161.568 Y55.375 E3.41952
G1 X161.75 Y55.589 E3.42886
G1 X162.067 Y55.978 E3.44556
G1 X162.411 Y56.422 E3.46424
G1 X162.783 Y56.933 E3.48526
G1 X162.921 Y57.134 E3.49337
G1 X163.188 Y57.542 E3.50959
G1 X163.494 Y58.033 E3.52883
G1 X163.845 Y58.638 E3.55209
G1 X163.972 Y58.874 E3.56101
G1 X164.168 Y59.255 E3.57526
G1 X164.413 Y59.756 E3.59381
G1 X164.723 Y60.449 E3.61906
G1 X164.829 Y60.71 E3.62843
G1 X164.968 Y61.072 E3.64132
G1 X165.142 Y61.548 E3.65818
G1 X165.291 Y61.984 E3.6735
G1 X166.141 Y64.424 E3.75944
G1 X167.027 Y66.753 E3.84232
G1 X168.003 Y69.118 E3.92742
G1 X169.03 Y71.415 E4.0111
G1 X170.114 Y73.671 E4.09435
G1 X171.262 Y75.893 E4.17754
G1 X172.483 Y78.105 E4.26157
G1 X173.77 Y80.284 E4.34574
G1 X175.115 Y82.424 E4.42981
G1 X176.51 Y84.51 E4.51327
G1 X177.967 Y86.559 E4.5969
G1 X179.2 Y88.201 E4.66519
G1 X179.436 Y88.524 E4.6785
G1 X179.722 Y88.935 E4.69515
G1 X180.074 Y89.466 E4.71634
G1 X180.457 Y90.086 E4.74058
G1 X180.589 Y90.317 E4.74943
G1 X180.813 Y90.73 E4.76506
G1 X181.07 Y91.228 E4.7837
G1 X181.203 Y91.496 E4.79365
G1 X181.597 Y92.315 E4.82387
G1 X182.069 Y93.333 E4.8612
G1 X183.218 Y95.635 E4.94677
G1 X184.394 Y97.835 E5.02974
G1 X185.63 Y99.998 E5.1126
G1 X186.951 Y102.164 E5.19698
G1 X188.323 Y104.279 E5.28083
G1 X189.331 Y105.737 E5.33978
G1 X189.886 Y106.562 E5.37286
G1 X190.183 Y107.028 E5.39123
G1 X190.478 Y107.518 E5.41026
G1 X190.792 Y108.077 E5.43158
G1 X190.896 Y108.275 E5.43902
G1 X191.105 Y108.694 E5.45459
G1 X191.342 Y109.196 E5.47306
G1 X191.575 Y109.724 E5.49225
G1 X191.679 Y109.978 E5.50138
G1 X191.883 Y110.516 E5.52052
G1 X192.062 Y111.028 E5.53856
G1 X192.252 Y111.626 E5.55943
G1 X192.328 Y111.891 E5.5686
G1 X192.45 Y112.357 E5.58462
G1 X192.581 Y112.903 E5.6033
G1 X192.717 Y113.555 E5.62545
G1 X192.764 Y113.821 E5.63443
G1 X192.84 Y114.315 E5.65106
G1 X192.912 Y114.868 E5.6696
G1 X192.974 Y115.479 E5.69003
G1 X192.99 Y115.696 E5.69727
G1 X193.016 Y116.192 E5.71379
G1 X193.033 Y116.79 E5.73368
G1 X193.032 Y117.425 E5.7548
G1 X193.025 Y117.664 E5.76276
G1 X192.998 Y118.177 E5.77984
G1 X192.953 Y118.768 E5.79956
G1 X192.888 Y119.39 E5.82036
G1 X192.861 Y119.592 E5.82714
G1 X192.783 Y120.091 E5.84393
G1 X192.669 Y120.722 E5.86526
G1 X192.518 Y121.423 E5.88911
G1 X192.462 Y121.648 E5.89682
G1 X192.338 Y122.105 E5.91257
G1 X192.178 Y122.647 E5.93137
G1 X192.093 Y122.921 E5.94091
G1 X191.807 Y123.8 E5.97165
G1 X191.44 Y124.882 E6.00966
G1 X190.683 Y127.33 E6.09488
G1 X190.01 Y129.75 E6.17842
G1 X189.407 Y132.179 E6.26167
G1 X188.86 Y134.685 E6.34698
G1 X188.402 Y137.124 E6.42952
G1 X188.006 Y139.606 E6.51311
G1 X187.681 Y142.095 E6.5966
G1 X187.424 Y144.616 E6.68088
G1 X187.239 Y147.139 E6.76502
G1 X187.196 Y148.005 E6.79386
G1 X187.12 Y149.413 E6.84076
G1 X187.066 Y150.057 E6.86226
G1 X187.035 Y150.331 E6.87143
G1 X186.965 Y150.841 E6.88855
G1 X186.878 Y151.382 E6.90677
G1 X186.781 Y151.908 E6.92456
G1 X186.732 Y152.14 E6.93245
G1 X186.588 Y152.737 E6.95288
G1 X186.435 Y153.303 E6.97238
G1 X186.27 Y153.857 E6.9916
G1 X186.195 Y154.086 E6.99962
G1 X186.012 Y154.599 E7.01773
G1 X185.805 Y155.139 E7.03697
G1 X185.575 Y155.694 E7.05695
G1 X185.473 Y155.922 E7.06526
G1 X185.233 Y156.425 E7.08379
G1 X184.968 Y156.945 E7.10321
G1 X184.663 Y157.503 E7.12436
G1 X184.525 Y157.739 E7.13345
G1 X184.266 Y158.158 E7.14983
G1 X183.977 Y158.605 E7.16754
G1 X183.578 Y159.182 E7.19087
G1 X183.392 Y159.433 E7.20126
G1 X183.135 Y159.766 E7.21525
G1 X182.815 Y160.165 E7.23226
G1 X182.36 Y160.697 E7.25555
G1 X182.162 Y160.914 E7.26532
G1 X181.855 Y161.237 E7.28014
G1 X181.479 Y161.617 E7.29792
G1 X180.955 Y162.113 E7.32192
G1 X180.753 Y162.292 E7.33089
G1 X180.43 Y162.567 E7.345
G1 X179.987 Y162.93 E7.36405
G1 X179.43 Y163.358 E7.38741
G1 X179.228 Y163.503 E7.39568
G1 X178.863 Y163.754 E7.41042
G1 X178.412 Y164.051 E7.42838
G1 X177.842 Y164.402 E7.45064
G1 X177.614 Y164.533 E7.45939
G1 X176.981 Y164.882 E7.48343
G1 X174.754 Y166.141 E7.56852
G1 X172.574 Y167.458 E7.65323
G1 X170.446 Y168.827 E7.73739
G1 X168.408 Y170.22 E7.81949
G1 X166.338 Y171.723 E7.90458
G1 X164.357 Y173.248 E7.98773
G1 X162.381 Y174.862 E8.07259
G1 X160.502 Y176.485 E8.15517
G1 X158.65 Y178.18 E8.23867
G1 X156.82 Y179.952 E8.32339
G1 X155.074 Y181.743 E8.40659
G1 X153.365 Y183.596 E8.49043
G1 X151.776 Y185.417 E8.57081
G1 X151.058 Y186.262 E8.60769
G1 X150.771 Y186.587 E8.62211
G1 X150.564 Y186.812 E8.63228
G1 X150.258 Y187.131 E8.64698
G1 X149.907 Y187.483 E8.66352
G1 X149.464 Y187.904 E8.68384
G1 X149.25 Y188.096 E8.69341
G1 X148.872 Y188.42 E8.70996
G1 X148.431 Y188.781 E8.72892
G1 X147.885 Y189.2 E8.75181
G1 X147.675 Y189.351 E8.76041
G1 X147.309 Y189.603 E8.77519
G1 X146.845 Y189.909 E8.79368
G1 X146.202 Y190.302 E8.81874
G1 X145.949 Y190.445 E8.82841
G1 X145.583 Y190.643 E8.84225
G1 X145.093 Y190.896 E8.86059
G1 X144.514 Y191.174 E8.88195
G1 X144.316 Y191.262 E8.88916
G1 X143.871 Y191.448 E8.9052
G1 X143.329 Y191.661 E8.92457
G1 X142.702 Y191.886 E8.94673
G1 X142.434 Y191.973 E8.9561
G1 X141.931 Y192.123 E8.97356
G1 X141.377 Y192.274 E8.99266
G1 X140.821 Y192.41 E9.01169
G1 X140.614 Y192.455 E9.01874
G1 X140.104 Y192.553 E9.03601
G1 X139.528 Y192.65 E9.05544
G1 X138.886 Y192.739 E9.077
G1 X138.683 Y192.761 E9.08379
G1 X138.215 Y192.802 E9.09941
G1 X137.603 Y192.842 E9.11981
G1 X136.981 Y192.865 E9.14051
G1 X136.75 Y192.867 E9.1482
G1 X136.019 Y192.849 E9.17252
G1 X135.294 Y192.807 E9.19667
G1 X134.95 Y192.781 E9.20815
G1 X134.704 Y192.759 E9.21636
G1 X134.005 Y192.674 E9.23978
G1 X133.733 Y192.632 E9.24893
G1 X133.288 Y192.554 E9.26396
G1 X132.734 Y192.445 E9.28274
G1 X132.124 Y192.307 E9.30354
G1 X131.898 Y192.249 E9.3113
G1 X131.401 Y192.109 E9.32848
G1 X130.838 Y191.936 E9.34807
G1 X130.184 Y191.712 E9.37106
G1 X129.935 Y191.618 E9.37991
G1 X129.504 Y191.445 E9.39536
G1 X128.993 Y191.227 E9.41384
G1 X128.472 Y190.989 E9.43289
G1 X128.28 Y190.895 E9.44
G1 X128.006 Y190.755 E9.45023
G1 X127.37 Y190.421 E9.47412
G1 X126.19 Y189.791 E9.51861
G1 X123.919 Y188.653 E9.6031
G1 X121.614 Y187.58 E9.68766
G1 X119.344 Y186.599 E9.76991
G1 X116.971 Y185.653 E9.85488
G1 X114.607 Y184.787 E9.93862
G1 X112.215 Y183.987 E10.02251
G1 X109.844 Y183.267 E10.10492
G1 X107.4 Y182.601 E10.18917
G1 X104.893 Y181.992 E10.27498
G1 X103.599 Y181.706 E10.31906
G1 X103.358 Y181.656 E10.32725
G1 X102.986 Y181.572 E10.33993
G1 X102.679 Y181.497 E10.35044
G1 X100.08 Y180.838 E10.43962
G1 X97.616 Y180.287 E10.5236
G1 X95.191 Y179.817 E10.60575
G1 X92.653 Y179.398 E10.69131
G1 X90.201 Y179.064 E10.77362
G1 X87.631 Y178.789 E10.85958
G1 X86.345 Y178.679 E10.90251
G1 X85.805 Y178.619 E10.92058
G1 X85.547 Y178.584 E10.92924
G1 X85.026 Y178.501 E10.94679
G1 X84.442 Y178.393 E10.96654
G1 X83.797 Y178.253 E10.9885
G1 X83.575 Y178.198 E10.9961
G1 X83.111 Y178.073 E11.01209
G1 X82.551 Y177.908 E11.0315
G1 X81.869 Y177.682 E11.0554
G1 X81.632 Y177.595 E11.0638
G1 X81.233 Y177.44 E11.07803
G1 X80.716 Y177.227 E11.09663
G1 X80.14 Y176.97 E11.11761
G1 X79.88 Y176.845 E11.12721
G1 X79.427 Y176.614 E11.14412
G1 X78.965 Y176.365 E11.16157
G1 X78.396 Y176.036 E11.18343
G1 X78.173 Y175.898 E11.19216
G1 X77.76 Y175.629 E11.20855
G1 X77.256 Y175.285 E11.22885
G1 X76.7 Y174.88 E11.25172
G1 X76.542 Y174.757 E11.25838
G1 X76.184 Y174.466 E11.27373
G1 X75.723 Y174.075 E11.29383
G1 X75.326 Y173.721 E11.31153
G1 X75.157 Y173.563 E11.31922
G1 X74.737 Y173.15 E11.33881
G1 X73.776 Y172.148 E11.38499
G1 X72.885 Y171.195 E11.42838
G1 X71.121 Y169.414 E11.51175
G1 X69.302 Y167.674 E11.59548
G1 X67.435 Y165.989 E11.67912
G1 X65.508 Y164.348 E11.76331
G1 X63.556 Y162.775 E11.84669
G1 X61.539 Y161.245 E11.93089
G1 X59.513 Y159.795 E12.01376
G1 X57.385 Y158.362 E12.09909
G1 X56.632 Y157.879 E12.12884
G1 X55.595 Y157.209 E12.1699
G1 X55.021 Y156.812 E12.19312
G1 X54.771 Y156.627 E12.20346
G1 X54.416 Y156.354 E12.21835
G1 X54.016 Y156.032 E12.23543
G1 X53.522 Y155.609 E12.25706
G1 X53.306 Y155.413 E12.26677
G1 X52.961 Y155.086 E12.28258
G1 X52.576 Y154.705 E12.30059
G1 X52.068 Y154.168 E12.32518
G1 X51.894 Y153.971 E12.33392
G1 X51.632 Y153.663 E12.34737
G1 X51.268 Y153.219 E12.36646
G1 X50.797 Y152.601 E12.39231
G1 X50.637 Y152.375 E12.40152
G1 X50.416 Y152.051 E12.41456
G1 X50.115 Y151.592 E12.43282
G1 X49.769 Y151.027 E12.45485
G1 X49.643 Y150.807 E12.46329
G1 X49.43 Y150.417 E12.47807
G1 X49.173 Y149.923 E12.49659
G1 X48.875 Y149.305 E12.51941
G1 X48.781 Y149.093 E12.52712
G1 X48.596 Y148.648 E12.54315
G1 X48.382 Y148.102 E12.56265
G1 X48.183 Y147.553 E12.58208
G1 X48.105 Y147.318 E12.59031
G1 X47.941 Y146.776 E12.60915
G1 X47.788 Y146.221 E12.62829
G1 X47.632 Y145.583 E12.65014
G1 X47.57 Y145.291 E12.66007
G1 X47.479 Y144.807 E12.67645
G1 X47.395 Y144.301 E12.69351
G1 X47.31 Y143.681 E12.71432
G1 X47.279 Y143.394 E12.72392
G1 X47.235 Y142.884 E12.74095
G1 X47.202 Y142.344 E12.75894
G1 X47.182 Y141.757 E12.77848
G1 X47.18 Y141.495 E12.78719
G1 X47.199 Y140.773 E12.81121
G1 X47.239 Y140.085 E12.83414
G1 X47.266 Y139.72 E12.84631
G1 X47.29 Y139.458 E12.85506
G1 X47.367 Y138.821 E12.8764
G1 X47.445 Y138.317 E12.89336
G1 X47.555 Y137.68 E12.91486
G1 X47.928 Y135.431 E12.99069
G1 X48.278 Y132.885 E13.07616
G1 X48.545 Y130.431 E13.15827
G1 X48.749 Y127.884 E13.24325
G1 X48.877 Y125.399 E13.32601
G1 X48.936 Y122.875 E13.40998
G1 X48.924 Y120.353 E13.49387
G1 X48.84 Y117.83 E13.57783
G1 X48.686 Y115.334 E13.661
G1 X48.458 Y112.796 E13.74576
G1 X48.162 Y110.296 E13.82949
G1 X48.088 Y109.772 E13.84709
G1 X48.01 Y109.149 E13.86797
G1 X47.976 Y108.843 E13.87821
G1 X47.957 Y108.647 E13.88476
G1 X47.92 Y108.132 E13.90194
G1 X47.891 Y107.549 E13.92135
G1 X47.877 Y106.956 E13.94108
G1 X47.878 Y106.723 E13.94883
G1 X47.894 Y106.171 E13.9672
G1 X47.926 Y105.584 E13.98675
G1 X47.98 Y104.942 E14.00818
G1 X48.011 Y104.669 E14.01732
G1 X48.083 Y104.146 E14.03488
G1 X48.173 Y103.592 E14.05354
G1 X48.293 Y102.97 E14.07461
G1 X48.347 Y102.727 E14.08289
G1 X48.462 Y102.26 E14.09889
G1 X48.61 Y101.709 E14.11786
G1 X48.779 Y101.141 E14.13757
G1 X48.851 Y100.921 E14.14527
G1 X49.032 Y100.41 E14.1633
G1 X49.241 Y99.864 E14.18275
G1 X49.492 Y99.261 E14.20447
G1 X49.592 Y99.04 E14.21254
G1 X49.807 Y98.593 E14.22904
G1 X50.062 Y98.091 E14.24777
G1 X50.343 Y97.572 E14.2674
G1 X50.466 Y97.359 E14.27558
G1 X50.75 Y96.894 E14.2937
G1 X51.065 Y96.406 E14.31302
G1 X51.411 Y95.902 E14.33335
G1 X51.571 Y95.682 E14.3424
G1 X51.896 Y95.257 E14.36019
G1 X53.047 Y93.826 E14.42127
G1 X54.65 Y91.775 E14.50785
G1 X56.101 Y89.808 E14.58915
G1 X57.58 Y87.676 E14.67545
G1 X58.945 Y85.589 E14.7584
G1 X60.259 Y83.446 E14.842
G1 X61.519 Y81.253 E14.92613
G1 X62.707 Y79.045 E15.00952
G1 X63.834 Y76.802 E15.09301
G1 X64.897 Y74.528 E15.1765
G1 X65.942 Y72.116 E15.26393
G1 X66.526 Y70.682 E15.31543
G1 X66.702 Y70.287 E15.32981
G1 X66.805 Y70.067 E15.33789
G1 X67.018 Y69.636 E15.35388
G1 X67.284 Y69.127 E15.37298
G1 X67.593 Y68.576 E15.39399
G1 X67.721 Y68.362 E15.40229
G1 X68.008 Y67.906 E15.42021
G1 X68.336 Y67.414 E15.43987
G1 X68.689 Y66.916 E15.46018
G1 X68.833 Y66.724 E15.46816
G1 X69.163 Y66.305 E15.4859
G1 X69.521 Y65.873 E15.50456
G1 X69.897 Y65.443 E15.52356
G1 X70.07 Y65.255 E15.53205
G0 F6000 X70.364 Y65.526
G1 F1200 X70.732 Y65.146 E15.54965
G1 X70.826 Y65.054 E15.55402
G1 X72.694 Y63.159 E15.64253
G1 X74.396 Y61.333 E15.72555
G1 X76.07 Y59.43 E15.80985
G1 X77.698 Y57.472 E15.89454
